!!!OTL: 507. Heimliche Liebe.
!!!ARE: Europa, Mitteleuropa, Deutschland
!!!SCT: E0507
!!!TXL: @@DE
!!!YEM: Copyright 1995, estate of Helmut Schaffrath.
**kern	**text
*ICvox	*
*M3/4	*
*k[b-]	*
*F:	*
!LO:TX:a:t=Jn ganʒ Deutſchland verbreitet.	!
!LO:TX:a:t=Mäßig langſam.	!
{4c	Kein
=1	=1
4f	Feu-
4f	-er,
8g	kei-
8g	-ne
=2	=2
4a	Koh-
4.a}	-le
{8b-	kann
=3	=3
4cc	bren-
8ddL	-nen
8ccJ	.
8b-L	ſo
8aJ	.
=4	=4
(4aqq	.
2g)}	heiß,
{4cc	als
=5	=5
4dd	heim-
8b-L	-li-
8ddJ	.
8ffL	-che
8ddJ	.
=6	=6
8ddL	Lie-
8ccJ	.
4cc}	-be,
{8a	von
8cc	der
=7	=7
8ccL	Nie-
8b-J	.
4a	-mand
4g	nichts
=8	=8
4.f}	weiß
{8aL	.
8g	.
8b-J	.
=9	=9
4.a	.
8ccL	.
8b-	.
8ddJ	.
=10	=10
(4cc	.
8ff)	.
8r}	.
{8a	von
8cc	der
=11	=11
8ccL	Nie-
8b-J	.
4a	-mand
4g	nichts
=12	=12
2f}	weiß.
==	==
!!!AGN: Liebes - Lied
!!!ONB: ESAC (Essen Associative Code) Database: ERK1
!!!AMT: simple triple
!!!AIN: vox
!!!EED: Helmut Schaffrath
!!!EEV: 1.0
!!!GTL: Liebeslieder [Neuere (aus dem 18. bis 19. Jahrh.) - Liebeslust]
!!!URL-scan: https://rosdok.uni-rostock.de/mcrviewer/recordIdentifier/rosdok_ppn745177662/iview2/phys_0329.iview2?x=-167.80707726282276&y=2033.9577050926164&scale=0.5707458166514069&rotation=0&layout=singlePageLayout
!!!ENC: Anna Maria Matuszewska
!!!EEV: 2024/10/12
*-	*-
